packages/astro-components-stencil/src/icons/contact-mail.svg

<svg xmlns="http://www.w3.org/2000/svg" viewBox="0 0 24 24"><g xmlns="http://www.w3.org/2000/svg" id="contact-mail" fill-rule="nonzero">
            <path d="M21 8V7l-3 2-3-2v1l2.72 1.82a.5.5 0 00.55 0L21 8zm1-5H2C.9 3 0 3.9 0 5v14c0 1.1.9 2 2 2h20c1.1 0 1.99-.9 1.99-2L24 5c0-1.1-.9-2-2-2zM8 6c1.66 0 3 1.34 3 3s-1.34 3-3 3-3-1.34-3-3 1.34-3 3-3zm6 12H2v-1c0-2 4-3.1 6-3.1s6 1.1 6 3.1v1zm7.5-6h-7c-.28 0-.5-.22-.5-.5v-5c0-.28.22-.5.5-.5h7c.28 0 .5.22.5.5v5c0 .28-.22.5-.5.5z"/>
        </g></svg>

<svg width="24" height="24" viewBox="0 0 24 24" fill="none" xmlns="http://www.w3.org/2000/svg">
<path fill-rule="evenodd" clip-rule="evenodd" d="M22 3H2C0.9 3 0 3.9 0 5V19C0 20.1 0.9 21 2 21H22C23.1 21 23.99 20.1 23.99 19L24 5C24 3.9 23.1 3 22 3ZM21 8V7L18 9L15 7V8L17.72 9.82C17.89 9.93 18.11 9.93 18.27 9.82L21 8ZM11 9C11 7.34 9.66 6 8 6C6.34 6 5 7.34 5 9C5 10.66 6.34 12 8 12C9.66 12 11 10.66 11 9ZM2 18V17C2 15 6 13.9 8 13.9C10 13.9 14 15 14 17V18H2ZM14.5 12H21.5C21.78 12 22 11.78 22 11.5V6.5C22 6.22 21.78 6 21.5 6H14.5C14.22 6 14 6.22 14 6.5V11.5C14 11.78 14.22 12 14.5 12Z" fill="black"/>
</svg>
